outputs/icons/editor/align_vertical_top_round.svg

<svg xmlns="http://www.w3.org/2000/svg" width="1200" height="1200" fill="none"><g clip-path="url(#a)"><path fill="#000" d="M1100 150c0 27.5-22.5 50-50 50H150c-27.5 0-50-22.5-50-50s22.5-50 50-50h900c27.5 0 50 22.5 50 50m-675 950c41.5 0 75-33.5 75-75V375c0-41.5-33.5-75-75-75s-75 33.5-75 75v650c0 41.5 33.5 75 75 75m350-300c41.5 0 75-33.5 75-75V375c0-41.5-33.5-75-75-75s-75 33.5-75 75v350c0 41.5 33.5 75 75 75"/></g><defs><clipPath id="a"><path fill="#fff" d="M0 0h1200v1200H0z"/></clipPath></defs></svg>

<svg width="1200" height="1200" viewBox="0 0 1200 1200" fill="none" xmlns="http://www.w3.org/2000/svg"><g clip-path="url(#clip0_238_241)"><path d="M1100 150C1100 177.5 1077.5 200 1050 200H150C122.5 200 100 177.5 100 150C100 122.5 122.5 100 150 100H1050C1077.5 100 1100 122.5 1100 150ZM425 1100C466.5 1100 500 1066.5 500 1025V375C500 333.5 466.5 300 425 300C383.5 300 350 333.5 350 375V1025C350 1066.5 383.5 1100 425 1100ZM775 800C816.5 800 850 766.5 850 725V375C850 333.5 816.5 300 775 300C733.5 300 700 333.5 700 375V725C700 766.5 733.5 800 775 800Z" fill="black"/></g><defs><clipPath id="clip0_238_241"><path width="24" fill="white" d="M0 0H1200V1200H0V0z"/></clipPath></defs></svg>
